X: 36463
T: Secret Garden, The
R: waltz
M: 3/4
K: Gmajor
|:G2GA dG|d2 eg dB|A2 AG AB|D2DE GD|
G2GA dG|d2 eg d2|e2 ed ef|g2 de ga|
b2bg fd|e2 ed B2|Ac BG EA|D2DE GD|
G2GA dG|d2 c2 B2|G2G2G2|DE GA G2:|
K: Amin
|:AF AB cd|e2 de cd|BG dc BG|c2 AB cd|
e2eg ^fd|e2 e2e2|Bc BG EG|A2AB GB|
AF AB cd|e2 de cd|BG dc BG|c2 AB cd|
e2eg a^f|e2 GA Bc|d2 c2 B2|G2G2G2:|

